public/assets/images/step8.svg

<svg width="118" height="100" viewBox="0 0 118 100" fill="none" xmlns="http://www.w3.org/2000/svg">
<circle cx="50" cy="50" r="46.5" stroke="#96D7A5" stroke-width="7"/>
<path d="M99.1667 58V45.5L116 51L99.1667 58Z" fill="#96D7A5" stroke="#96D7A5"/>
<path d="M49 63.5C49.9667 63.5 50.8167 63.3333 51.55 63C52.3167 62.6667 52.9667 62.1833 53.5 61.55C54.0667 60.9167 54.4833 60.15 54.75 59.25C55.05 58.3167 55.2 57.2667 55.2 56.1C55.2 54.4333 54.95 53.05 54.45 51.95C53.95 50.85 53.2333 50.0333 52.3 49.5C51.3667 48.9333 50.2667 48.65 49 48.65C47.7333 48.65 46.6333 48.9333 45.7 49.5C44.7667 50.0333 44.05 50.85 43.55 51.95C43.05 53.05 42.8 54.4333 42.8 56.1C42.8 57.2667 42.9333 58.3167 43.2 59.25C43.5 60.15 43.9167 60.9167 44.45 61.55C45.0167 62.1833 45.6833 62.6667 46.45 63C47.2167 63.3333 48.0667 63.5 49 63.5ZM49 45.75C50.0333 45.75 50.9167 45.5167 51.65 45.05C52.3833 44.55 52.95 43.8333 53.35 42.9C53.75 41.9333 53.95 40.7667 53.95 39.4C53.95 38 53.75 36.8333 53.35 35.9C52.95 34.9667 52.3833 34.25 51.65 33.75C50.9167 33.25 50.0333 33 49 33C48 33 47.1167 33.25 46.35 33.75C45.6167 34.25 45.05 34.9667 44.65 35.9C44.25 36.8333 44.05 38 44.05 39.4C44.05 40.7667 44.25 41.9333 44.65 42.9C45.05 43.8333 45.6167 44.55 46.35 45.05C47.1167 45.5167 48 45.75 49 45.75ZM49 30C51.1 30 52.95 30.3833 54.55 31.15C56.15 31.8833 57.4 32.9333 58.3 34.3C59.2 35.6333 59.65 37.1667 59.65 38.9C59.65 40.4 59.3333 41.7333 58.7 42.9C58.1 44.0667 57.2167 45.0333 56.05 45.8C54.8833 46.5667 53.5333 47.1 52 47.4L52.7 46.5V47.75L52 46.7C53.8333 47 55.4667 47.5833 56.9 48.45C58.3333 49.2833 59.45 50.3667 60.25 51.7C61.05 53.0333 61.45 54.5667 61.45 56.3C61.45 58.3 60.9167 60.0667 59.85 61.6C58.8167 63.1333 57.3667 64.3333 55.5 65.2C53.6333 66.0667 51.4667 66.5 49 66.5C46.5667 66.5 44.4 66.0667 42.5 65.2C40.6333 64.3333 39.1667 63.1333 38.1 61.6C37.0667 60.0667 36.55 58.3 36.55 56.3C36.55 54.5667 36.95 53.0333 37.75 51.7C38.5833 50.3667 39.7 49.2833 41.1 48.45C42.5333 47.5833 44.1667 47 46 46.7L45.3 47.75V46.5L46 47.4C44.4667 47.1 43.1167 46.5667 41.95 45.8C40.7833 45.0333 39.8833 44.0667 39.25 42.9C38.65 41.7333 38.35 40.4 38.35 38.9C38.35 37.1667 38.8 35.6333 39.7 34.3C40.6 32.9333 41.85 31.8833 43.45 31.15C45.05 30.3833 46.9 30 49 30Z" fill="#96D7A5"/>
</svg>

<svg xmlns="http://www.w3.org/2000/svg" width="118" height="100" fill="none"><circle cx="50" cy="50" r="46.5" stroke="#96D7A5" stroke-width="7"/><path fill="#96D7A5" stroke="#96D7A5" d="M99.167 58V45.5L116 51z"/><path fill="#96D7A5" d="M49 63.5q1.45 0 2.55-.5a5.25 5.25 0 0 0 1.95-1.45q.85-.95 1.25-2.3.45-1.4.45-3.15 0-2.5-.75-4.15T52.3 49.5q-1.4-.85-3.3-.85t-3.3.85q-1.4.8-2.15 2.45t-.75 4.15q0 1.75.4 3.15.45 1.35 1.25 2.3a5.7 5.7 0 0 0 2 1.45q1.15.5 2.55.5m0-17.75q1.55 0 2.65-.7 1.1-.75 1.7-2.15.6-1.45.6-3.5 0-2.1-.6-3.5t-1.7-2.15T49 33q-1.5 0-2.65.75-1.1.75-1.7 2.15t-.6 3.5q0 2.05.6 3.5.6 1.4 1.7 2.15 1.15.7 2.65.7M49 30q3.15 0 5.55 1.15 2.4 1.1 3.75 3.15 1.35 2 1.35 4.6 0 2.25-.95 4-.9 1.75-2.65 2.9T52 47.4l.7-.9v1.25L52 46.7q2.75.45 4.9 1.75 2.15 1.25 3.35 3.25t1.2 4.6q0 3-1.6 5.3-1.55 2.3-4.35 3.6T49 66.5q-3.65 0-6.5-1.3-2.8-1.3-4.4-3.6-1.55-2.3-1.55-5.3 0-2.6 1.2-4.6 1.25-2 3.35-3.25 2.15-1.3 4.9-1.75l-.7 1.05V46.5l.7.9q-2.3-.45-4.05-1.6t-2.7-2.9q-.9-1.75-.9-4 0-2.6 1.35-4.6 1.35-2.05 3.75-3.15Q45.85 30 49 30"/></svg>
